section-13/facebook.svg

<svg width="21" height="20" viewBox="0 0 21 20" fill="none" xmlns="http://www.w3.org/2000/svg">
<g clip-path="url(#clip0_671_48)">
<path d="M12.0173 19.9609H8.68482C8.12818 19.9609 7.67538 19.5258 7.67538 18.9908V11.7667H5.73112C5.17448 11.7667 4.72168 11.3313 4.72168 10.7965V7.70096C4.72168 7.16599 5.17448 6.7308 5.73112 6.7308H7.67538V5.18066C7.67538 3.64365 8.17756 2.33597 9.12746 1.39923C10.0816 0.458221 11.4151 -0.0390625 12.9837 -0.0390625L15.5253 -0.0350952C16.081 -0.0341797 16.533 0.401001 16.533 0.935059V3.8092C16.533 4.34418 16.0803 4.77936 15.5239 4.77936L13.8127 4.77997C13.2908 4.77997 13.1579 4.88052 13.1295 4.91135C13.0827 4.96246 13.0269 5.10696 13.0269 5.50598V6.73065H15.3953C15.5735 6.73065 15.7463 6.77292 15.8947 6.85257C16.215 7.02454 16.4141 7.3497 16.4141 7.70111L16.4128 10.7967C16.4128 11.3313 15.96 11.7665 15.4033 11.7665H13.0269V18.9908C13.0269 19.5258 12.574 19.9609 12.0173 19.9609ZM8.89534 18.7885H11.8068V11.2418C11.8068 10.8846 12.1093 10.594 12.4808 10.594H15.1928L15.1939 7.90329H12.4806C12.1091 7.90329 11.8068 7.61276 11.8068 7.25555V5.50598C11.8068 5.04791 11.8552 4.52698 12.215 4.13544C12.6497 3.66211 13.3348 3.60748 13.8123 3.60748L15.313 3.60687V1.13709L12.9828 1.13342C10.4619 1.13342 8.89534 2.68433 8.89534 5.18066V7.25555C8.89534 7.61261 8.59305 7.90329 8.22153 7.90329H5.94164V10.594H8.22153C8.59305 10.594 8.89534 10.8846 8.89534 11.2418V18.7885ZM15.5229 1.13739H15.5231H15.5229Z" fill="#BABABA"/>
</g>
<defs>
<clipPath id="clip0_671_48">
<rect width="20.7692" height="20" fill="white" transform="translate(0.230469)"/>
</clipPath>
</defs>
</svg>

<svg xmlns="http://www.w3.org/2000/svg" width="21" height="20" fill="none"><g clip-path="url(#a)"><path fill="#BABABA" d="M12.017 19.96H8.685c-.557 0-1.01-.434-1.01-.97v-7.223H5.731c-.557 0-1.01-.436-1.01-.97V7.7c0-.535.453-.97 1.01-.97h1.944V5.18c0-1.537.503-2.845 1.452-3.782.955-.94 2.288-1.438 3.857-1.438l2.541.004c.556 0 1.008.436 1.008.97V3.81c0 .535-.453.97-1.01.97l-1.71.001c-.522 0-.655.1-.684.131-.046.051-.102.196-.102.595v1.225h2.368c.178 0 .351.042.5.122.32.172.52.497.52.848l-.002 3.096c0 .534-.453.97-1.01.97h-2.376v7.224c0 .535-.453.97-1.01.97Zm-3.122-1.172h2.912v-7.546c0-.357.302-.648.674-.648h2.712v-2.69h-2.712a.662.662 0 0 1-.674-.648v-1.75c0-.458.048-.979.408-1.37.435-.474 1.12-.529 1.597-.529h1.501v-2.47l-2.33-.004c-2.521 0-4.088 1.551-4.088 4.048v2.075a.662.662 0 0 1-.673.647h-2.28v2.691h2.28c.371 0 .673.29.673.648v7.546Zm6.628-17.65Z"/></g><defs><clipPath id="a"><path fill="#fff" d="M.23 0H21v20H.23z"/></clipPath></defs></svg>
